X:1
T:Mourner, 66.66.88
T:Mourner, 66.66.88
T:Harmonia Sacra
T:Public Domain Courtesy of the Cyber Hymnal™
C:Harmonia Sacra
Z:Public Domain
Z:Courtesy of the Cyber Hymnal™
%%score ( 1 2 ) ( 3 4 )
L:1/8
Q:1/4=150
M:3/2
K:F
V:1 treble 
V:2 treble 
V:3 bass 
V:4 bass 
V:1
 [FA]4 | [DA]2 [Fd]2 [Fd]4 [E^c]4 | [Fd]8 [DF]4 | [DG]2 [DG]2 [DF]4 [^CE]4 | D8 [FA]4 | %5
 [DA]2 [Fd]2 [Fd]4 [E^c]4 | [Fd]8 [FA]4 | [Ac]2 [F=B]2 [EA]4 [E^G]4 | %8
 !fermata![FA]6 [Fc]2 [Fc]2 [F^c]2 | [Gd]6 [Gc]2 [Gc]2 G2 | A6 [FA]2 [FA]2 [FA]2 | %11
 [Ff]2 [Ge]2 [Ad]4 [A^c]4 | [Ad]8 |] %13
V:2
 x4 | x12 | x12 | x12 | D8 x4 | x12 | x12 | x12 | x12 | x10 G2 | A6 x6 | x12 | x8 |] %13
V:3
 [D,D]4 | [F,D]2 [D,A,]2 A,4 [A,,A,]4 | [D,A,]8 [D,A,]4 | [G,,B,]2 [G,,B,]2 [A,,A,]4 [A,,A,]4 | %4
 [D,A,]8 [D,D]4 | [F,D]2 [D,A,]2 A,4 [A,,A,]4 | [D,A,]8 [D,D]4 | [^C,E]2 [D,D]2 [E,^C]4 [E,=B,]4 | %8
 !fermata![D,D]6 [F,A,]2 [F,A,]2 [F,A,]2 | [B,,B,]6 [C,G,]2 [C,G,]2 [C,C]2 | %10
 [F,C]6 [D,D]2 [D,D]2 [D,D]2 | [D,A,]2 [G,,B,]2 [A,,A,]4 [A,,A,]4 | [D,A,]8 |] %13
V:4
 x4 | x4 A,4 x4 | x12 | x12 | x12 | x4 A,4 x4 | x12 | x12 | x12 | x12 | x12 | x12 | x8 |] %13

